!!!COM: Palestrina, Giovanni Perluigi da
!!!OPR: Panis quem ego dabo
!!!OTL: Benedictus
**kern	**kern	**kern
*Itenor	*Icalto	*Icant
!Tenor	!Altus	!Cantus
*clefGv2	*clefG2	*clefG2
*k[]	*k[]	*k[]
*D:dor	*D:dor	*D:dor
*M4/2	*M4/2	*M4/2
=1	=1	=1
0r	0r	1a
.	.	1ee
=2	=2	=2
0r	0r	1ff
.	.	2dd
.	.	2cc
=3	=3	=3
0r	1d	1ff
.	1a	2ee
.	.	2cc
=4	=4	=4
0r	1b-	4dd
.	.	4ee
.	.	4ff
.	.	4dd
.	2g	2ee
.	2f	[2ff
=5	=5	=5
1r	1b-	4ff]
.	.	4ee
.	.	2.dd
1A	1a	.
.	.	4cc
.	.	2cc
=6	=6	=6
1e	2r	2b
.	2g	2ee
1f	4a	2cc
.	4b	.
.	4cc	2a
.	4a	.
=7	=7	=7
2d	2b	2dd
2c	2.cc	2ee
1f	.	4a
.	4b	4b
.	[2a	4cc
.	.	4a
=8	=8	=8
1e	2a]	1b
.	2g#	.
2r	2.a	[1a
2c	.	.
.	4g	.
=9	=9	=9
4d	4f	1a]
4e	4e	.
4f	2d	.
4d	.	.
2e	2c#	1r
[2f	[2d	.
=10	=10	=10
4f]	4d]	1a
4e	4e	.
1d	4f	.
.	4d	.
.	1e	1ee
2c#	.	.
=11	=11	=11
2d	1d	1ff
2f	.	.
2g	1r	2dd
2a	.	2cc
=12	=12	=12
2d	2r	1ff
2d	2f	.
2.c	2g	2ee
.	2a	2cc
4A	.	.
=13	=13	=13
4B	1d	4dd
4c	.	4ee
4d	.	4ff
4B	.	4dd
2c	2.a	2ee
[2d	.	[2ff
.	4g	.
=14	=14	=14
2d]	2f	4ff]
.	.	4ee
2G	2g	1dd
1A	1e	.
.	.	2cc#
=15	=15	=15
2r	1d	0dd
2d	.	.
2d	2r	.
2d	2a	.
=16	=16	=16
1A	2a	0r
.	2a	.
2.c	1e	.
4d	.	.
=17	=17	=17
4e	2.g	0r
4f	.	.
2.g	.	.
.	4a	.
.	2b	.
4f	.	.
4e	[2cc	.
4d	.	.
=18	=18	=18
1c	4cc]	1r
.	4b	.
.	4a	.
.	4g	.
2.d	2f	2r
.	[2a	2dd
4c	.	.
=19	=19	=19
2B	4a]	2dd
.	4g	.
2G	1g	2dd
1d	.	1a
.	2f	.
=20	=20	=20
1A	2e	2.cc
.	2a	.
.	.	4dd
1r	2a	4ee
.	.	4ff
.	2b	[2gg
=21	=21	=21
1r	2.cc	4gg]
.	.	4ff
.	.	4ee
.	4b	4dd
2r	4a	2cc
.	4g	.
2d	4f	2dd
.	4e	.
=22	=22	=22
2d	2.f	1a
2d	.	.
.	8e	.
.	8d	.
1A	2e	2.cc
.	[2a	.
.	.	4dd
=23	=23	=23
2.c	4a]	1.ee
.	4g	.
.	1cc	.
4d	.	.
4e	.	.
4f	.	.
[2g	4b	4dd
.	4a	4cc
=24	=24	=24
4g]	2b	1dd
4f	.	.
4d	1a	.
4e	.	.
2f	.	2.cc
4e	[2g	.
4d	.	4b
=25	=25	=25
2c	2g]	2a
2d	2f#	2a
2e	1g	[1g
2c	.	.
=26	=26	=26
2c	2r	1g]
2c	2g	.
1G	2g	2r
.	2g	2dd
=27	=27	=27
2r	1d	2dd
2d	.	2dd
2d	2.f	1a
2d	.	.
.	4g	.
=28	=28	=28
1A	4a	2.cc
.	4b	.
.	2.cc	.
.	.	4dd
4c	.	4ee
4d	4b	4ff
4e	4g	[2gg
4f	4a	.
=29	=29	=29
2.g	2.b-	4gg]
.	.	4ff
.	.	4dd
4f	4a	4ee
4d	4f	2.ff
4e	4g	.
[2f	[2a	.
.	.	4ee
=30	=30	=30
4f]	4a]	4cc
4e	4g	4dd
2c	2e	2.ee
2d	2f	.
.	.	4dd
2G	2g	[2dd
=31	=31	=31
1.A	2.e	2dd]
.	.	4cc
.	4d	4b
.	4e	2cc
.	4f	.
2B	[2g	2b
=32	=32	=32
1c	2g]	0a
.	4f#	.
.	4e	.
1d	1f#	.
=33	=33	=33
1.G	1.g	1.b-
2G	2g	2b-
=34	=34	=34
0d	0f#	0a
==	==	==
*-	*-	*-
!!!CDT: 1525/^1526/-1594/2/2
!!!OCY: Italia
!!!AGN: Mass (Parody)
!!!AST: renaissance, vocal
!!!ASW: Motet 1532 (Lupus Hellinck)
!!!PWK: Masses, Book 5
!!!RNB: Cadence finals: A
!!!YOR: Le Opere Complete, v. 15, p. 45
!!!YOO: Rome, Italy: Fratelli Scalera
!!!END: 1992//
!!!EED: John Miller
!!!YEC: Copyright 2000, John Miller
!!!YEN: United States of America
!!!YEM: Rights to all derivative electronic formats reserved.
!!!YEM: Refer to licensing agreement for further details.
!!!YEM: This file must be accompanied by the licensing agreement.
!!!YEM: A copy of the licensing agreement may be found at http://www.music-cog.ohio-state.edu/HumdrumDatabases/Palestrina/license.txt
!!!EMD: converted to Humdrum by Bret Aarden
